X: 1
T: Alicia Kate Parker's
M: 6/8
L: 1/8
R: jig
K: Dmaj
|: dAf e3 | dBA BAF | AFB Adf | efd e2 f |
dAF efd | dBA BAF | EFA Bdf | dBA B3 :|
|: b3 efb | afe dBA | FAA cef | e3 dea |
b3 efa | fed AFA | dAf edB | AFA B3 :|
